svg/waveform.svg

<svg xmlns="http://www.w3.org/2000/svg" viewBox="0 0 24 24"><path d="m22 12-2 1-1 1-1-1-1 3-1-3-1 8-1-8-1 2-1-2-1 4-1-4-1 9-1-9-1 6-1-6-1 1-1-1-2-1 2-1 1-1 1 1 1-6 1 6 1-9 1 9 1-4 1 4 1-2 1 2 1-8 1 8 1-3 1 3 1-1 1 1z"/></svg>

<?xml version="1.0" encoding="UTF-8"?><!DOCTYPE svg PUBLIC "-//W3C//DTD SVG 1.1//EN" "http://www.w3.org/Graphics/SVG/1.1/DTD/svg11.dtd"><svg xmlns="http://www.w3.org/2000/svg" xmlns:xlink="http://www.w3.org/1999/xlink" version="1.1" id="mdi-waveform" width="24" height="24" viewBox="0 0 24 24"><path d="M22 12L20 13L19 14L18 13L17 16L16 13L15 21L14 13L13 15L12 13L11 17L10 13L9 22L8 13L7 19L6 13L5 14L4 13L2 12L4 11L5 10L6 11L7 5L8 11L9 2L10 11L11 7L12 11L13 9L14 11L15 3L16 11L17 8L18 11L19 10L20 11L22 12Z" /></svg>
